X:1
L:1/8
M:2/4
K:F#min
 B2 | F>B B>c | A>B c>e | f>a f>a | f/e/c B>A | F>B B>c | A>B c>e | f>a f>a | f/e/c B2 || A>a a>a | 
 A>B c>e | f>b b>c' | c'/b/a f>g | a>a a>a | A>B c>e | f>a f>a | f/e/c B2 ||
